!!!!SEGMENT: pl-wumfc--r282--002-006_paderewski-ignacy-jan--exercises-2-exercise-6.krn
!!!cenid: 18xx:3181
!!!COM: Paderewski, Ignacy Jan
!!!COM-rismid: pe30029943
!!!CDT: 1860/11/18-1941/06/29
!!!CNT: Polish
!!!GTL: [Exercises 2]
!!!OTL: [Exercise] 6
!!!OMV: 006
!!!PDT:
!!!AGN:
!!!SMS-siglum: PL-Wumfc
!!!SMS-shelfmark: R282
!!!SMS-shelfwork: 002-006 G
!!!SMS-variant:
!!!SMS-altvar:
!!!NIFC-rismid: 1001158933
!!!URL-scan: http://repozytorium.nifc.pl/skany/pl-wumfc--r282
!!!ONB-nifc: UWAGA: druga grupa ćwiczeń od skanu 0008
!!!AIN: 2 piano
!!!key: G
**kern	**kern
*part2	*part1
*group1	*group1
*staff2	*staff1
*I"[Pianoforte]	*I"[Pianoforte]
*I'	*I'
*Ipiano	*Ipiano
*ICklav	*ICklav
*clefF4	*clefG2
*k[f#]	*k[f#]
*G:	*G:
*M	*M
*^	*^
!!LO:TX:t=P:problem:brak kluczy na początku ćwiczenia
!	!	!LO:TX:b:t=C. f	!
2G/	2G\	2g/	4d\
.	.	.	4c\
*v	*v	*	*
=1	=1	=1
2G\	2b/	4B\
.	.	4c\
2F#\	2a/	4d\
.	.	4A\
2E\	2cc/	4G\
.	.	4A\
2D\	[2b/	4B\
.	.	4c\
=2	=2	=2
2G\	2b/]	4B\
.	.	4g\
2A\	2cc/	4f#\
.	.	4e\
2B;\	2b;/	2d\
2B\	2dd/	4d\
.	.	4g\
=3	=3	=3
2B\	2dd/	4f#\
.	.	4e\
2B\	2gg/	4d\
.	.	4e\
2A\	2ff#/	4f#\
.	.	4a\
2G\	2ee/	4b\
.	.	4a\
=4	=4	=4
2c\	2ee/	4g\
.	.	4a\
2B\	2dd/	4b\
.	.	4d\
2A;\	2cc;/	2e;\
2G\	2b/	4g\
.	.	4f#\
=5	=5	=5
2A\	2cc/	4e\
.	.	4f#\
2B\	2g/	4g\
.	.	4B\
2A\	2f#/	4c\
.	.	4d\
2G\	2e/	4e\
.	.	4d\
=6	=6	=6
2E\	2cc/	4c\
.	.	4e\
2F#\	2a/	4d\
.	.	4c\
2G;\	2b;/	2B;\
2d\	2a/	4f#\
.	.	4e\
=7	=7	=7
2B\	2dd/	4d\
.	.	4f#\
2G\	2gg/	4e\
.	.	4B\
2A\	2ff#/	4c\
.	.	4d\
2c\	2ee/	4e\
.	.	4f#\
=8	=8	=8
2B\	2dd/	4g\
.	.	4d\
2A\	2cc/	4e\
.	.	4f#\
2G;\	2b;/	2g;\
*	*v	*v
==	==
*-	*-
!!!system-decoration: [(g1)]
!!!ENC: Katarzyna Serwa
!!!END: 2021-11-16
!!!ENC: Anastazja Marusiak
!!!END: 2021-11-12
